!!!OTL-incipit: SAGT MIR O SCHOENSTE SCHAEFRIN MEIN
!!!ARE: Europa, Mitteleuropa, Deutschland
!!!SCT: Z0193
!!!TXL: @@DE
!!!YEM: Copyright 1995, estate of Helmut Schaffrath.
**kern	**text
*ICvox	*
*M6/8	*
*k[]	*
*C:	*
!LO:TX:a:t=Altdeutſch.	!
{8gg	Sagt
=1	=1
4cc	mir,
8ee	o
4cc	ſchön-
8ee	-ſte
=2	=2
4cc	Schäfrin
8ee	.
4dd}	mein,
{8ff	der
=3	=3
4ee	Au-
8dd	-gen
4cc	ed-
8dd	-le
=4	=4
[4.g	Ʒier,
4g]}	.
{8gg	Darf
=5	=5
4cc	ich
8ee	bei
4cc	euch
8ee	nicht
=6	=6
4cc	keh-
8ee	-ren
4dd}	ein
{8ff	als
=7	=7
4ee	ein
8dd	ge-
4cc	-treuer
8dd	.
=8	=8
[4.g	Hirt?
4g]}	.
{8cc	Jch
=9	=9
4ff	ſteh
8ff	ſchon
4ff	lang
8ff	vor
=10	=10
4ee	eu-
8dd	-rer
4cc}	Thür,
{8cc	o
=11	=11
4ff	Schäfe-
8ff	.
4ff	-rin,
8ff	er-
=12	=12
4ee	-öff-
8dd	-net
4cc}	mir
{8ee	die
=13	=13
4cc	Pfort,
8ee	die
4cc	Pfort,
8ee	die
=14	=14
[4.cc	Pfort.
4cc]}	.
==	==
!!!AGN: Romanze
!!!ONB: ESAC (Essen Associative Code) Database: ZUCCAL
!!!AMT: compound duple
!!!AIN: vox
!!!EED: Helmut Schaffrath
!!!EEV: 1.0
!!!GTL: III. Soldaten-, Jaeger-, Schiffer-, Fuhrmanns- und Handwerks-Lieder.
!!!URL-scan: https://www.digitale-sammlungen.de/de/view/bsb11160571?page=358
!!!ENC: Anna Maria Matuszewska
!!!EEV: 2025/01/28
*-	*-
